X:1
T:Engelska efter Alfred Pettersson (i D)
R:Engelska
O:Nättraby, Blekinge
Z:Andy Davey, januari 2018
M:2/4
L:1/16
K:D
| A4 |: dced f4 | fegf a4 | a2ba fdfa | agec d4 :|
| AFAd BGBd | cege edfd | AFAd BGBd | cege d2d2 |
| AFAd BGBd | cege edfd | AFAd BGBd | cege d4 |

